img/cab-section__01.svg

<svg width="36" height="38" viewBox="0 0 36 38" fill="none" xmlns="http://www.w3.org/2000/svg">
<path d="M34.2608 17.8092H27.1152V7.05627C27.1152 6.64636 26.7829 6.31409 26.373 6.31409H20.3393V6.28098C20.3393 2.81764 17.5203 0 14.0552 0C10.59 0 7.77099 2.81764 7.77099 6.28098V6.31409H1.7373C1.32739 6.31409 0.995117 6.64636 0.995117 7.05627V37.2578C0.995117 37.6677 1.32739 38 1.7373 38H34.2609C34.6708 38 35.0031 37.6677 35.0031 37.2578V18.5513C35.003 18.1414 34.6708 17.8092 34.2608 17.8092ZM9.25529 6.28098C9.25529 3.63612 11.4085 1.48438 14.0551 1.48438C16.7017 1.48438 18.8549 3.63612 18.8549 6.28098V6.31409H9.25529V6.28098ZM16.2391 36.5156H6.30146V33.6301H16.2391V36.5156ZM33.5187 36.5156H17.7235V29.0349C17.7235 28.625 17.3912 28.2927 16.9813 28.2927C16.5714 28.2927 16.2391 28.625 16.2391 29.0349V32.1458H5.55927C5.14936 32.1458 4.81709 32.4781 4.81709 32.888V36.5156H2.47949V7.79846H7.77099V10.8653C6.83532 11.1767 6.15881 12.0603 6.15881 13.0988C6.15881 14.3964 7.21494 15.4522 8.51318 15.4522C9.81141 15.4522 10.8675 14.3964 10.8675 13.0988C10.8675 12.0603 10.191 11.1767 9.25537 10.8653V7.79846H18.855V10.8653C17.9194 11.1767 17.2429 12.0603 17.2429 13.0988C17.2429 14.3964 18.299 15.4522 19.5972 15.4522C20.8955 15.4522 21.9516 14.3964 21.9516 13.0988C21.9516 12.0603 21.2751 11.1767 20.3394 10.8653V7.79846H25.6309V17.8091H16.9813C16.5714 17.8091 16.2391 18.1414 16.2391 18.5513V22.3246C16.2391 22.7345 16.5714 23.0667 16.9813 23.0667C17.3912 23.0667 17.7235 22.7345 17.7235 22.3246V19.2935H33.5187V36.5156ZM8.5131 12.2298C8.99278 12.2298 9.3831 12.6196 9.3831 13.0989C9.3831 13.5781 8.99285 13.9679 8.5131 13.9679C8.03335 13.9679 7.64311 13.5781 7.64311 13.0989C7.64311 12.6196 8.03343 12.2298 8.5131 12.2298ZM19.5972 12.2298C20.0768 12.2298 20.4671 12.6196 20.4671 13.0989C20.4671 13.5781 20.0768 13.9679 19.5972 13.9679C19.1175 13.9679 18.7272 13.5781 18.7272 13.0989C18.7272 12.6196 19.1175 12.2298 19.5972 12.2298Z" fill="white"/>
<path d="M17.6658 25.4094C17.5424 25.1133 17.2346 24.9251 16.9141 24.9541C16.6073 24.9818 16.3439 25.2037 16.2638 25.501C16.1819 25.8047 16.3074 26.136 16.5688 26.3104C16.821 26.4787 17.1587 26.4738 17.4071 26.3005C17.6884 26.1043 17.7975 25.7256 17.6658 25.4094Z" fill="white"/>
<path d="M25.6215 27.028C27.8837 27.028 29.7242 25.1884 29.7242 22.9272V22.0194C29.7242 21.6095 29.3919 21.2772 28.982 21.2772C28.5722 21.2772 28.2398 21.6095 28.2398 22.0194V22.9272C28.2398 24.3699 27.0653 25.5436 25.6215 25.5436C24.1778 25.5436 23.0032 24.3699 23.0032 22.9272V22.0194C23.0032 21.6095 22.6708 21.2772 22.261 21.2772C21.8512 21.2772 21.5188 21.6095 21.5188 22.0194V22.9272C21.5188 25.1884 23.3593 27.028 25.6215 27.028Z" fill="white"/>
</svg>

<svg width="36" height="38" fill="none" xmlns="http://www.w3.org/2000/svg"><path d="M34.26 17.81h-7.145V7.055a.742.742 0 00-.742-.742h-6.034V6.28A6.29 6.29 0 0014.055 0a6.29 6.29 0 00-6.284 6.281v.033H1.737a.742.742 0 00-.742.742v30.202c0 .41.332.742.742.742h32.524c.41 0 .742-.332.742-.742V18.55a.742.742 0 00-.742-.742zM9.256 6.28a4.804 4.804 0 014.8-4.797c2.647 0 4.8 2.152 4.8 4.797v.033h-9.6V6.28zm6.984 30.235H6.301V33.63h9.938v2.886zm17.28 0H17.724v-7.481a.742.742 0 00-1.485 0v3.11H5.56a.742.742 0 00-.742.743v3.628H2.48V7.798h5.292v3.067A2.358 2.358 0 006.159 13.1a2.357 2.357 0 002.354 2.353 2.357 2.357 0 002.354-2.353 2.358 2.358 0 00-1.612-2.234V7.798h9.6v3.067a2.358 2.358 0 00-1.612 2.234 2.357 2.357 0 002.354 2.353 2.357 2.357 0 002.355-2.353 2.358 2.358 0 00-1.613-2.234V7.798h5.292V17.81h-8.65a.742.742 0 00-.742.742v3.774a.742.742 0 001.485 0v-3.031h15.795v17.222zM8.513 12.23c.48 0 .87.39.87.869a.87.87 0 01-1.74 0c0-.48.39-.87.87-.87zm11.084 0c.48 0 .87.39.87.869a.87.87 0 01-1.74 0c0-.48.39-.87.87-.87z" fill="#fff"/><path d="M17.666 25.41a.748.748 0 00-.752-.456.75.75 0 00-.65.547.749.749 0 00.305.81.75.75 0 00.838-.01.748.748 0 00.259-.892zm7.956 1.618a4.106 4.106 0 004.102-4.1v-.909a.742.742 0 00-1.484 0v.908a2.62 2.62 0 01-2.618 2.617 2.62 2.62 0 01-2.619-2.617v-.908a.742.742 0 00-1.484 0v.908a4.106 4.106 0 004.103 4.101z" fill="#fff"/></svg>
